X:1
T:S010
T:Oboe Sonata in G-minor, TWV 41:g6 
T:Transcribed for Recorder Duet in A-minor from IMSLP#89249 PDF File
T:Georg Philipp Telemann (1681 — 1767)
T:D. D. T.
T:D. D. T.
T:D. D. T.
T:D. D. T.
T:D. D. T.
C:229
Z:230
Z:D. D. T.
%%score [ 1 2 ]
L:1/8
Q:3/8=50
M:12/8
K:C
V:1 treble nm="Alto Rec." snm="A."
V:2 bass+8 nm="Bass Rec." snm="B."
V:1
"^1. Largo" z | z12 | z12 | z12 | z12 | z z A e6 d2 B | ^G3 z z A d>ef e2 d | c>BA a3- a2 c B2 d | %8
 g2 _B A2 c f6- | f3 z z g e>dc B2 d | ^c2 d f2 e d3 z z e | ^d2 e g2 ^f e2 B b3- | %12
 b3 a2 ^f ^d3 z z B | c2 ^c d2 ^d e>g^f g2 ^g | a6- a3 z2 b | g>^fe ^d2 e e3 z3 | z3 z3 z3 z z A | %17
 d2 d f>ed d>Bc e3- | e3 d2 B ^G3 z z b | c'>ba ^g2 a f>ef z z =g | e>de z z f d>cd f>ge | %21
 d>ef e>fd c>Bc d>fe | z f^f z (g^g) a3- a>c'b | e3 z z d c>BA ^G2 A | A3 z3 f6 | %25
 e3 z z ^g a3/2 =g/4f/4e c>dB | A6 z6 |][M:4/4][Q:1/4=180]"^2. Prest" e2 | ABcd e2 a2 | %29
 ^g2 a4 ab/c'/ | g2 ef/g/ f2 de/f/ | ed c2 z2 d2 | edeg edec | dcBc de^fg | cBce cBcA | %35
 BA^GA Bcde | ABcd e2 a2 | ^g2 a4 de/f/ | e2 A2 cBA^G | A4 z2 e2 | a2 a2 a2 a2 | ab c'4 b2 | %42
 a2 gf e2 d2 | cB A2 z2 c2 | B^GBd cAce | B^GBd cAce | dedB cdcA | c2 B2 z2 e2 | d^cBA Bcde | %49
 fg a4 g2 | f2 ed fed^c | ded^c dA d2 | cBAG ABcd | ef g4 f2 | e2 dc edcB | cedc fedc | agfe fedc | %57
 B/A/G (^f4 g2) | z2 (e4 f2) | z2 (d4 e2) | z2 (c4 d2) | B/A/G d/c/B f/e/d g2 | e2 dc G2 B2 | %63
 c4 z2 g2 | cde^f g2 c2 | B2 c2 z2 a2 | de^fg a2 d2 | ^c2 d2 z2 A2 | d2 d2 d2 d2 | de f4 e2 | %70
 d2 c_B A2 G2 | FA d2 z2 c2 | Bd g2 z2 f2 | eg c'2 z2 e2 | a2 a2 a2 a2 | ab c'4 b2 | a2 gf e2 d2 | %77
 cB A2 z2 c2 | B^GBd cAce | B^GBd cAce | dedB cdcA | BcB^G ABcd | edef TB4 | A4 z2 e2 | T^c4- c4 | %85
 d4 z2 ^f2 | T^d8 | e4 z2 ^g2 | a^gae abga | babe bc'ab | c'ba^g a=gfe | fed^c d2 d2 | %92
 !fermata!d4 z2 f2 | e2 ^d2 e2 ^g2 | a3 g/f/ e2 d2 | c2 ^G2 A2 f2 | TB8 | A4 z2 e2 | ABcd e2 a2 | %99
 ^g2 a4 ab/c'/ | g2 ef/g/ f2 de/f/ | ed c2 z2 d2 | edeg edec | dcBc defg | cBce cBcA | BA^GA Bcde | %106
 ABcd e2 a2 | ^g2 a4 de/f/ | e2 A2 cBA^G | A8 |] %110
[K:A][M:3/8][K:treble][Q:3/8=50]"^3. Tempo giusto" A2 B | c/B/AB | c/d/ef | Td2 c | (fe) z | %115
 (GA) z | ((B/c/)d)c | Bc/B/c/A/ | B/d/c/B/c/A/ | B/c/dc | (fe) z | (GA) z | Bc/B/c/d/ | TB2 z | %124
 e Td2 | c/A/G/A/B/c/ | (f/>g/a)f | T^d>cB | b Ta2 | g^de- | e/a/ Tf>e | e3- | ef/e/f/^d/ | e3- | %134
 e/a/g/f/e/^d/ | e/g/f/e/^d/c/ | B/^d/c/B/ e/4g/4f/4e/4 | a>fg- | g/a/ Tf>e | e2 z | e/f/4=g/4 fe | %141
 d/c/B/^A/B/c/ | d/e/4f/4 ed | c/B/A/G/A/B/ | (cd) z | (B/d/)c z | Ae/d/c/d/ | B/A/B/d/c/B/ | %148
 A2 B | c/B/AB | c/d/ef | Td2 c | (fe) z | (GA) z | d TB2 | A3- | AB/A/B/G/ | A3- | A/d/c/B/A/G/ | %159
 A/a/g/a/b/a/ | g/f/e/^d/e/c/ | d>Bc- | c/d/ TB2 | A3!D.C.! |] z/8 | %165
[K:C][M:4/4][Q:1/4=60]"^4. Andante" e/>f/ | gg ga/>b/ c'c z a/>f/ | gc/>g/ Tf2 e2 z e/>c/ | %168
 d/^fg/ c/fg/ B/>c/ d2 e/>f/ | ga/>b/ c'a{g} T^f/>e/d z c | B/>d/g/>a/{g} T^f>g g2- g/>_b/a/>g/ | %171
 f/>e/ d2 e/>^c/ d/>e/f- f/>a/g/>f/ | e/>d/ c2 d/>B/ a/>g/f/>e/ dc | %173
{c} TB/>A/G z e/>f/ gg g a/>b/ | c' f2 e/>d/ gc/>d/{c} TB>c | c2 z d _e/(ed/) e/(ed/) | %176
 _e/>c/d z g (a/>b/c'/)g/ (a/>b/c'/)g/ | ag z a/>e/ fg/>d/ ec/>e/ | d/^fg/ c/fg/ TB/>A/G z =f | %179
 e/>a/g/>f/{e} Td>c c2 z2 |][M:3/4][Q:1/4=100]"^5. Allegro" c/A/c/e/ ag/f/ e/d/c/B/ | %181
 A A2 A2 c/A/ | B B2 B2 d/B/ | c/A/e B/^G/e d/B/e | c/A/c/e/ ag/f/ e/d/c/B/ | %185
 AA- A/B/^G/A/ B/c/A/B/ | c/B/A/B/ c/d/c/d/ Td2 | e6- | e6- | e2 z e/f/ ed | %190
 ^c/d/e/f/ e/f/g/a/ g/f/e/g/ | f/e/d z ^f/g/ fe | ^d/e/^f/g/ f/g/a/b/ a/g/f/a/ | g/^f/e z g fg/e/ | %194
 ^de/^f/ Bb a/g/f/e/ | ^de/^f/ Be Te3/2d/4e/4 | ^f2 z fTf3/2e/4f/4 | g2 z gTg3/2^f/4g/4 | %198
 ag/^f/ be Tfe/^d/ | e2- e/^f/g/^d/ e/f/g/e/ | e2- e/^f/g/^d/ e/f/g/e/ | a/b/c' c'/b/a a/g/^f | %202
 ^f/g/a a/g/f f/^d/e | A2 z (a/4b/4c'/) ba | g^f/e/ T^d3 e | e4 z2 :: e/c/e/g/ c'b/a/ g/f/e/d/ | %207
 c c2 c2 e/c/ | d d2 d2 f/d/ | e/c/g d/B/g f/d/g | e/c/e/g/ c'b/a/ g/f/e/d/ | %211
 cc- c/d/B/c/ d/e/c/d/ | e/d/c/d/ e/f/e/^f/ Tf2 | g6- | g6- | g2 z a/g/ fe | %216
 e/d/^c/d/ a/d/c/d/ ec | d/e/f/e/ d/f/e/d/ g/f/e/d/ | e/c/B/c/ g/c/B/c/ dB | c/d/e/d/ c/e/d/c/ fd | %220
 z (cB)(fec) | z (BA)(edB) | z A^Gd c/B/c/d/ | B/A/^G/A/ B/d/c/B/ e/d/c/B/ | A ^g2 (aga) | %225
 d ^g2 (aga) | ce cB/A/ B^G | A2- A/B/c/^G/ A/B/c/G/ | A2- A/B/c/^G/ A/B/c/A/ | %229
 a/b/c' c'/b/a a/g/f | f/g/a a/g/f f/e/d | d2 z fea | ^ga/g/ ad{c} TB2 |1 A4 z2 :|2 A6 |] %235
V:2
 A,, | F,2 F, F,>F,F, F,2 E, z z E, | D,>E,F, E,2 D, C,>B,,A,, z z G, | %3
 ^F,>A,D G,2 =F, E,>G,C F,2 E, | D,>CB, C,>B,A, B,,>^G,A, E,2 E, | A,,3 z z A,, F,2 F, F,>E,F, | %6
 F,2 E, z z C B,2 A, ^G,2 E, | A,2 A,, z z G, ^F,>A, D G,2 G, | E,>G,C F,2 E, D,>DC B,,>B,A, | %9
 G,,2 B, z z B, C2 F, G,2 G,, | G,2 F, A,2 G, F,>E,D, D2 C | B,2 E, B,2 A, G,3 z z E, | %12
 C2 C C>B,C C2 B, z z ^D, | E,>A,G, ^F,>B,A, G,2 ^D, E,>ED | C,>CB, A,,>G,^F, ^D,3 z z ^D | %15
 E2 A, B,2 B,, E,3 z z F, | C2 C C>B,C C2 B, z2 C | B,2 B, E,2 E, A,2 A,, z2 A,, | %18
 F,2 F, F,>E,F, F,2 E, z z ^G, | F,2 D E>D^C D,2 D B,>A,B, | C,2 C A,>^G,A, B,,2 A, G,2 =G, | %21
 F,2 A, G,2 F, E,2 E B,2 C | A,>DC B,>ED C2 ^C D2 ^D | E2 E, z z ^G, A,2 D, E,2 E, | %24
 F,>A,C F,2 E, D,>DC B,,>B,A, | ^G,,3 z z D C2 C, E,2 E, | A,,6 z6 |][M:4/4] z2 | z4 z2 A,2 | %29
 E2 A,B, C2 A,2 | E,2 C,2 D,2 G,2 | C,2 E,D, C,2 B,2 | C2 C,2 C,2 C,2 | A,4 z4 | %34
 A,2 A,,2 A,,2 A,,2 | E,2 z4 z2 | C,2 B,,2 C,2 F,2 | E,2 A,,B,, C,2 B,,2 | C,2 F,2 D,2 E,2 | %39
 A,,A,G,F, E,D,C,B,, | A,,4 z4 | z2 A,^G, A,2 B,2 | C2 D2 E2 E,2 | A,2 A,,2 C,2 A,,2 | %44
 !wedge!E,4 !wedge!E,4 | !wedge!E,4 !wedge!E,4 | A,,4 z4 | E,2 E,^F, ^G,2 E,2 | A,4 z2 A,2 | %49
 D,2 DE F2 E2 | D2 _B,2 G,2 A,2 | F,2 A,2 F,2 D,2 | G,4 z2 G,2 | C,2 CD E2 D2 | C2 E,2 F,2 G,2 | %55
 A,4 z2 A,2 | A,4 z2 ^F,2 | G,2 G,2 G,2 G,2 | G,,2 G,,2 G,,2 G,,2 | G,2 G,2 G,2 G,2 | %60
 ^F,2 F,2 F,2 F,2 | G,4 z2 B,2 | C2 F,2 G,2 G,,2 | C,CB,A, G,F,E,D, | E,2 C,2 z2 A,2 | %65
 G,2 E,D, E,F,G,E, | F,2 D,2 z2 _B,2 | A,2 F,E, F,G,F,E, | D,4 z2 z2 | z2 D,^C, D,2 E,2 | %70
 F,2 G,2 A,2 ^A,,2 | D,2 D,E, F,2 D,2 | G,2 G,A, B,2 G,2 | C2 CB, CDCB, | A,4 z4 | %75
 z2 A,G, A,2 B,2 | C2 D2 E2 E,2 | A,2 A,,2 C,2 A,,2 | !wedge!E,4 !wedge!E,4 | %79
 !wedge!E,4 !wedge!E,4 | E,4 A,,4 | E,4 z2 D,2 | C,2 D,2 E,2 E,2 | A,,2 CB, C2 ^G,2 | %84
 A,2 !arpeggio!_B,A, G,B,A,G, | F,G,F,E, D,2 C2 | B,2 CB, A,CB,A, | G,A,G,^F, E,2 D2 | C4 z2 C2 | %89
 ^G,4 z2 A,2 | A,2 B,2 C2 ^C2 | D2 E2 F2 D2 | !fermata!G,4 z2 D2 | C2 ^F,2 G,2 E,2 | %94
 F,2 E,D, C,2 B,,2 | A,,2 B,,2 C,2 D,2 | E,4 E,4 | A,,4 z4 | z4 z2 A,2 | E2 A,B, C2 A,2 | %100
 E,2 C,2 D,2 G,2 | C,2 E,D, C,2 B,2 | C2 C,2 C,2 C,2 | G,4 z2 z2 | A,2 A,,2 A,,2 A,,2 | E,2 z4 z2 | %106
 C,2 B,,2 C,2 F,2 | E,2 A,,B,, C,2 B,,2 | C,2 F,2 D,2 E,2 | A,,8 |][K:A][M:3/8][K:bass+8] A,,3- | %111
 A,,3 | A,2 F, | B,E,A, | (DC) z | (B,A,) z | G,2 A, | E,E,E, | E,E,E, | E,2 A, | (D,C,) z | %121
 (B,,A,,) z | G,A,A,, | E,2 E, | E,G,E, | A,2 z | A,F,^A, | B,B,,A, | G,2 F, | E,B,C | A,B,B,, | %131
 E,F,G, | A,2 z | G,F,E, | C2 z | G,2 ^A, | B,2 C | F,B,E, | A,B,B,, | E,ED | C^A,F, | B,,2 z | %142
 !>!B,G,E, | A,,2 z | (A,F,) z | (G,A,) z | C,2 D, | E,2 E, | A,,3- | A,,3 | A,2 F, | B,E,A, | %152
 (DC) z | (B,C) z | D,E,E, | A,,B,,C, | D,2 z | C,B,,A,, | F,2 z | C,2 ^D, | E,F,=G, | F,G,A, | %162
 D,E,E, | A,,3 |] z/8 |[K:C][M:4/4] C | B,A,B,G, A,A,, A,F, | [G,E]E2/3 DG, x/3 CC,/>B,,/ C,C | %168
 B,B,,A,,A, G,B,/>A,/ G,C | B,G, E,C D,D/>C/ B,A, | G,B,/>C/ DD, G,E,/>D,/ ^C,^C | %171
 DF,/>_B,/ A,G, F,D,/>C,/ B,,=B, | CE,/>A,/ G,.G,, F,A,/>G,/ F,^F, | G,G,/>A,/ B,C B,A, B,G, | %174
 A,A,,D,G, E,F,G,G,, | C,CB,G, CB,CB, | CG, z E, F,E,F,E, | F, C, z ^C, D,B,, =C,C | %178
 B,B,, A,,A, G,G,, z B,, | C,/>F,/E,/>F,/ G,G,, C,2 z2 |][M:3/4][K:bass+8] A,2 z2 ^G,2 | %181
 A,B,CB,CA, | DB,EDEE, | A,2 ^G,2 E,2 | A,2 z2 ^G,2 | A,B,CA,^G,E, | A,A,, A,G, F,F | E2 z C B,A, | %188
 ^G,A,/B,/ E,CB,A, | ^G,A,/B,/ E,2 G,2 | A,2 z2 A,2 | D,2 DD,DC | B,2 z2 B,2 | E,2 EE, ^D,E, | %194
 B,2 z G,^D,E, | B,2 G,E, G,E, | ^D,B,D,B,D,B, | E,EE,EE,E | F,2 G,2 A,B, | G,G,G,G,G,G, | CCCCCC | %201
 A,2 A,2 A,2 | A,,2 A,,2 A,,2 | ^F,2 z F,G,^D, | E,A,B,A,B,B,, | E,2 EDCB, :: C,2 z2 B,,2 | %207
 CC,E,D,E,C, | F,D,G,F,G,G,, | C,2 B,,2 G,,2 | C,2 z2 B,,2 | C,D, E,C, B,,G,, | C,2 CB, A,D | %213
 G,2 z EDC | B,C/D/ G,EDC | B,C/D/ ^CA,B,C | D2 F,2 G,A, | D,2 DC B,A, | C2 E,2 F,G, | %219
 C,2 F,2 D,2 | G,2 z2 C,2 | F,2 z2 B,,2 | E,2 z2 A,,2 | E,2 E,2 E,2 | C,2 C,2 C,2 | F,2 F,2 z2 | %226
 E,2 E,2 D,2 | C,C,C,C,C,C, | F,F,F,F,F,F, | C,2 A,,2 z2 | D,2 D2 z2 | ^G,2 z G,A,^D | %232
 E,D, C,D, E,E, |1 A,,2 A,^G,A,B, :|2 A,,6 |] %235

